Newaita/actions/22/debug-run.svg

<?xml version="1.0" encoding="UTF-8"?>
<svg xmlns="http://www.w3.org/2000/svg" xmlns:xlink="http://www.w3.org/1999/xlink" width="22pt" height="22pt" viewBox="0 0 22 22" version="1.1">
<defs>
<filter id="alpha" filterUnits="objectBoundingBox" x="0%" y="0%" width="100%" height="100%">
  <feColorMatrix type="matrix" in="SourceGraphic" values="0 0 0 0 1 0 0 0 0 1 0 0 0 0 1 0 0 0 1 0"/>
</filter>
<mask id="mask0">
  <g filter="url(#alpha)">
<rect x="0" y="0" width="22" height="22" style="fill:rgb(0%,0%,0%);fill-opacity:0.988235;stroke:none;"/>
  </g>
</mask>
<clipPath id="clip1">
  <rect x="0" y="0" width="22" height="22"/>
</clipPath>
<g id="surface5" clip-path="url(#clip1)">
<path style=" stroke:none;fill-rule:nonzero;fill:rgb(25.882354%,25.882354%,25.882354%);fill-opacity:1;" d="M 0.910156 5.628906 L 0.910156 19.273438 C 0.910156 20.28125 1.722656 21.09375 2.730469 21.09375 L 19.101562 21.09375 C 20.109375 21.09375 20.921875 20.28125 20.921875 19.273438 L 20.921875 5.628906 Z M 2.273438 6.992188 L 19.554688 6.992188 L 19.554688 18.820312 C 19.554688 19.324219 19.152344 19.726562 18.648438 19.726562 L 3.183594 19.726562 C 2.679688 19.726562 2.273438 19.324219 2.273438 18.820312 Z M 2.273438 6.992188 "/>
</g>
<mask id="mask1">
  <g filter="url(#alpha)">
<rect x="0" y="0" width="22" height="22" style="fill:rgb(0%,0%,0%);fill-opacity:0.988235;stroke:none;"/>
  </g>
</mask>
<clipPath id="clip2">
  <rect x="0" y="0" width="22" height="22"/>
</clipPath>
<g id="surface8" clip-path="url(#clip2)">
<path style=" stroke:none;fill-rule:nonzero;fill:rgb(25.882354%,25.882354%,25.882354%);fill-opacity:1;" d="M 2.730469 1.082031 C 1.722656 1.082031 0.910156 1.894531 0.910156 2.902344 L 0.910156 5.628906 L 2.273438 5.628906 L 2.273438 3.355469 C 2.273438 2.851562 2.679688 2.445312 3.183594 2.445312 L 18.648438 2.445312 C 19.152344 2.445312 19.554688 2.851562 19.554688 3.355469 L 19.554688 5.628906 L 20.921875 5.628906 L 20.921875 2.902344 C 20.921875 1.894531 20.109375 1.082031 19.101562 1.082031 Z M 2.730469 1.082031 "/>
</g>
</defs>
<g id="surface1">
<use xlink:href="#surface5" mask="url(#mask0)"/>
<use xlink:href="#surface8" mask="url(#mask1)"/>
<path style=" stroke:none;fill-rule:nonzero;fill:rgb(100%,43.921569%,26.274511%);fill-opacity:1;" d="M 13.105469 11.582031 C 12.929688 11.574219 12.757812 11.640625 12.632812 11.761719 C 12.503906 11.882812 12.433594 12.050781 12.433594 12.226562 L 12.433594 17.683594 C 12.433594 17.914062 12.558594 18.128906 12.761719 18.242188 C 12.960938 18.359375 13.210938 18.355469 13.410156 18.234375 L 17.957031 15.507812 C 18.152344 15.390625 18.269531 15.179688 18.269531 14.953125 C 18.269531 14.726562 18.152344 14.519531 17.957031 14.402344 L 13.410156 11.671875 C 13.316406 11.617188 13.210938 11.585938 13.105469 11.582031 Z M 13.722656 13.363281 L 16.371094 14.953125 L 13.722656 16.542969 Z M 13.722656 13.363281 "/>
</g>
</svg>

<svg xmlns="http://www.w3.org/2000/svg" xmlns:xlink="http://www.w3.org/1999/xlink" width="22pt" height="22pt" viewBox="0 0 22 22"><defs><filter id="a" filterUnits="objectBoundingBox" x="0%" y="0%" width="100%" height="100%"><feColorMatrix in="SourceGraphic" values="0 0 0 0 1 0 0 0 0 1 0 0 0 0 1 0 0 0 1 0"/></filter><mask id="e"><path fill-opacity=".988" d="M0 0h22v22H0z" filter="url(#a)"/></mask><clipPath id="b"><path d="M0 0h22v22H0z"/></clipPath><g id="d" clip-path="url(#b)"><path d="M.91 5.629v13.644c0 1.008.813 1.82 1.82 1.82h16.372c1.007 0 1.82-.812 1.82-1.82V5.63zm1.363 1.363h17.282V18.82a.902.902 0 0 1-.907.907H3.184a.905.905 0 0 1-.91-.907zm0 0" fill="#424242"/></g><mask id="g"><path fill-opacity=".988" d="M0 0h22v22H0z" filter="url(#a)"/></mask><clipPath id="c"><path d="M0 0h22v22H0z"/></clipPath><g id="f" clip-path="url(#c)"><path d="M2.73 1.082c-1.007 0-1.82.813-1.82 1.82V5.63h1.363V3.355c0-.503.407-.91.91-.91h15.465c.504 0 .907.407.907.91V5.63h1.367V2.902c0-1.007-.813-1.82-1.82-1.82zm0 0" fill="#424242"/></g></defs><use xlink:href="#d" mask="url(#e)"/><use xlink:href="#f" mask="url(#g)"/><path d="M13.105 11.582a.641.641 0 0 0-.472.18.635.635 0 0 0-.2.465v5.457c0 .23.126.445.329.558.199.117.449.113.648-.008l4.547-2.726a.646.646 0 0 0 0-1.106l-4.547-2.73a.656.656 0 0 0-.305-.09zm.618 1.781l2.648 1.59-2.648 1.59zm0 0" fill="#ff7043"/></svg>
